X: 2
T: Captain Macintosh  v.2
P: piffero secondo b0005
O: Cushing
%R: march
F: http://ancients.sudburymuster.org/mus/ssp/pdf/MacintosF.pdf
Z: 2019 John Chambers <jc:trillian.mit.edu>
M: 2/4
L: 1/16
K: D
F2 |\
F3G F3G | E2F2 E2F2 | F3G F2d2 | f2d2 f2d2 |\
g2e2 e2c2 | f2d2 A2F2 | G2A2 B2A2 | B2A2 G2F2 ||\
F3G F3G | E2F2 E2F2 |
F3G F2d2 | f2d2 f2d2 |\
g2e2 e2c2 | f2d2 A2F2 | B2G2 G2E2 | F6 :: d2 |\
f3g f3g | e2c2 c2d2 | e3f e3f | d2A2 d2F2 |\
G2FG A2F2 |
G2GA B2G2 | g2e2 c2d2 | B2A2 G2F2 ||\
F3G F3G | E2F2 E2F2 | F3G F2d2 | f2d2 f2d2 |\
g2e2 e2c2 | f2d2 A2F2 | B2c2 A2G2 | F6 :|

%%center (drum bridge, Recruiting Sergeant, 8 bars)


